X: 3728
T: Bingo's
R: reel
M: 4/4
K: Dmajor
ag|fdBd A2dA|BAFD EFGB|A~F3 dFBF|Adfa gece|
d/e/d/ ce dBAG|~F3A GFEG|FAdf ecdB|aceg fdde:|
fa^gb afdf|gBed cAAG|FAdf gaba|agfg e2fg|
~a3b afdf|gBed cAAG|FAdf ecdB|1 Aceg fdde:|2 ABcd egfe||

